X:795
T:Brigid Of Knock
O:england
R:Hornpipe
C:Ed Reavy
M:4/4
L:1/8
N:Named for Ed's wife, who came from Knock.
N:She was part of everything he did. To me,
N:she represents the warmth, beauty, and love
N:that inspires each of us to value what
N:we are and what we came from.
K:G
(3DEF|GFGA Bdgf|agfc ed^cd|BGDG cAFG|
ABcB AG (3FED|G,B,D=F ECEG|FDFA GBAc|
Bgfd cAFA|G2 GF G2:||fg|afdg bgfa|
gfge dcBd|ceAc BcdA|FAcA FD (3CB,A,|
G,B,D=f ECEG|FDFA GBAc|Bgfd cAFA|
G2 GF G2:||
